X:2202
T:George White's Favorite
O:england
M:C|
L:1/8
Q:230
R:Reel
K:G
eB ~B2 eBdB | AGAB GEDE | GB ~B2 dB ~B2 | eBdB ABcd |
eB ~B2 eBdB | AGAB GEDE | GABd gedB | AGAB G2 Bd :||:
gede gaba | ~g2 ga gedB | dega bgag | ea{b}ag a2 ga |
bgeg ~d2 dg | {a}gede gaba | gd (3ddd  egdB | AGAB G2 Bd :|


